X:47
T:Halling e. Gabriel Reed
O:norway
M:6/8
R:Halling
N:Yorkshire Dales Scandy weekend, June '99; workshop tunes
Z:photocopies from Arne S\o{}lvberg
K:A
[A,6D6A6e6]|]\
vA2c d2(uf | b)g(ue a)fd | e2c d2(uB | e)c(A uB)GE | A3 A2z ::
K:D
(vF3 D2)d | (dc)e d2F | E2(uE D)vd2 | (udce) d2F | E2(E A)F(F |\
[M:3/8] D)B,E | [M:6/8] D3 D2z :|
